images_sukapura_svg/cmd/lc_showtrackedchanges.svg

<svg viewBox="0 0 24 24" xmlns="http://www.w3.org/2000/svg" xmlns:xlink="http://www.w3.org/1999/xlink"><linearGradient id="a" gradientUnits="userSpaceOnUse" x1="15" x2="17" y1="7" y2="4.999999"><stop offset="0" stop-color="#fff"/><stop offset=".77967989" stop-color="#f1f1f1"/><stop offset="1" stop-color="#d5d5d5"/></linearGradient><radialGradient id="b" cx="17" cy="6.555555" gradientTransform="matrix(1.4285714 -.00000006 .00000006 1.4285714 -7.285714 -4.365078)" gradientUnits="userSpaceOnUse" r="7"><stop offset="0" stop-color="#d7d7d7"/><stop offset=".29999998" stop-color="#f7f7f7"/><stop offset="1" stop-color="#fff"/></radialGradient><linearGradient id="c" gradientTransform="translate(36 -5)" gradientUnits="userSpaceOnUse" x1="14" x2="13.79661" y1="22" y2="2.135593"><stop offset="0" stop-color="#0040dd"/><stop offset="1" stop-color="#0a84ff"/></linearGradient><linearGradient id="d" gradientUnits="userSpaceOnUse" x1="16" x2="16" xlink:href="#c" y1="19" y2="15"/><path d="m5 3v3.7285156 2.6777344 11.246094.347656h.3515625 13.2968755.351562v-.347656-11.246094-2.6777344l-4-3.7285156h-6z" fill="url(#b)"/><path d="m5 2c-.554 0-1 .446-1 1v18c0 .554.446 1 1 1h4.1875 8.451172 1.365234c.137039-.00053.268151-.028142.386719-.078125.361002-.150582.613281-.505043.613281-.921875l-.003906-11.9589844v-1.7910156-.2089844c0-.4506799.098038-.4254121-.605469-1.0664062l-3.30664-3.2382813c-.709525-.7368575-.710169-.7363281-1.09375-.7363281h-.332032-.662109zm0 1h9v4c0 .554.446 1 1 1h4v1.0410156.3652344l.003906 11.242188-.003906.003906v.347656h-.351562-9.2148442-.4921876-3.9414062z" fill="#98989d"/><path d="m15 7h4l-4-4z" fill="#fff" fill-rule="evenodd"/><rect fill="#98989d" height="1" ry=".5" width="5" x="7" y="5"/><rect fill="#98989d" height="1" ry=".5" width="3" x="7" y="9"/><rect fill="#ff9f0a" height="1" ry=".5" width="5" x="12" y="9"/><rect fill="#ff9f0a" height="1" ry=".5" width="7" x="7" y="12"/><rect fill="#98989d" height="1" ry=".5" width="4" x="7" y="15"/><rect fill="#ff9f0a" height="1" ry=".474576" width="2" x="7" y="18"/><path d="m15 3 4 4h-4z" fill="url(#a)"/><path d="m19 11.480469.0039 9.167969-.0039.003906v-9.171875c-.327387-.103401-.661406-.184407-1-.253907-.652986-.134031-1.318417-.226366-2-.226562h-.002c-3.642815.0048-6.9985403 1.99445-8.7519532 5.1875l-.2147968.392578.1484375.421875c.1929162.544187.537993 1.017718.9863281 1.365235l.984375.761718.5332032-1.125c.3731592-.788024.9155932-1.440319 1.5234372-2.021484-.073348.339227-.207031.657267-.207031 1.017578 0 1.638539.809363 3.086603 2.037109 4 .582575.433414 1.252311.755248 1.988282.902344.03101.0315.05822.06676.08984.09766h2.523438 1.365234c.137039-.00053.268151-.02814.386719-.07813.361005-.150581.613284-.505042.613284-.921874l-.003906-9z" fill="#fff" fill-opacity=".784314"/><circle cx="16" cy="17" fill="#fff" r="4"/><path d="m15.999953 12c-3.280109.0043-6.298117 1.792832-7.876953 4.667969.128945.363734.357439.676587.65625.908203 1.321789-2.791309 4.132254-4.572462 7.220703-4.576172-2.209139 0-4 1.790861-4 4s1.790861 4 4 4 4-1.790861 4-4c.008-2.079511-1.578821-3.81826-3.650391-4 2.961312.134551 5.605464 1.895565 6.871094 4.576172.301515-.233711.531909-.55005.660156-.917969-1.582074-2.87259-4.601418-4.657258-7.880859-4.658203zm0 2c1.656854 0 3 1.343146 3 3s-1.343146 3-3 3-3-1.343146-3-3 1.343146-3 3-3z" fill="#98989d"/><path d="m15.999953 15c-1.104569 0-2 .895431-2 2s.895431 2 2 2 2-.89543 2-2c.02896-.194894.02896-.392997 0-.587891-.174008.38903-.57545.625034-1 .587891-.552285 0-1-.447715-1-1-.03682-.425027.200049-.826612.589844-1-.195534-.02915-.39431-.02915-.589844 0z" fill="url(#d)"/><path d="m46-3c-3.313708 0-6 2.6862915-6 6 0 3.313708 2.686292 6 6 6v8h2v-18h2v18h2v-18l4-1v-1z" fill="url(#c)"/></svg>

<?xml version="1.0" encoding="UTF-8" standalone="no"?>
<svg
   xmlns:dc="http://purl.org/dc/elements/1.1/"
   xmlns:cc="http://creativecommons.org/ns#"
   xmlns:rdf="http://www.w3.org/1999/02/22-rdf-syntax-ns#"
   xmlns:svg="http://www.w3.org/2000/svg"
   xmlns="http://www.w3.org/2000/svg"
   xmlns:xlink="http://www.w3.org/1999/xlink"
   xmlns:sodipodi="http://sodipodi.sourceforge.net/DTD/sodipodi-0.dtd"
   xmlns:inkscape="http://www.inkscape.org/namespaces/inkscape"
   viewBox="0 0 24 24"
   version="1.1"
   id="svg34"
   sodipodi:docname="lc_showtrackedchanges.svg"
   inkscape:version="0.92.3 (2405546, 2018-03-11)"
   inkscape:export-filename="/home/rizmut/Documents/Rizmut/Github/libreoffice-style-sukapura/images_sukapura/cmd/lc_showtrackedchanges.png"
   inkscape:export-xdpi="96"
   inkscape:export-ydpi="96">
  <metadata
     id="metadata40">
    <rdf:RDF>
      <cc:Work
         rdf:about="">
        <dc:format>image/svg+xml</dc:format>
        <dc:type
           rdf:resource="http://purl.org/dc/dcmitype/StillImage" />
        <dc:title></dc:title>
      </cc:Work>
    </rdf:RDF>
  </metadata>
  <defs
     id="defs38">
    <linearGradient
       id="a"
       gradientUnits="userSpaceOnUse"
       x1="15"
       x2="17"
       y1="7"
       y2="4.999999">
      <stop
         offset="0"
         stop-color="#fff"
         id="stop924" />
      <stop
         offset=".77967989"
         stop-color="#f1f1f1"
         id="stop926" />
      <stop
         offset="1"
         stop-color="#d5d5d5"
         id="stop928" />
    </linearGradient>
    <radialGradient
       id="b"
       cx="17"
       cy="6.5555549"
       gradientTransform="matrix(1.4285714,-6e-8,6e-8,1.4285714,-7.285714,-4.365078)"
       gradientUnits="userSpaceOnUse"
       r="7">
      <stop
         offset="0"
         stop-color="#d7d7d7"
         id="stop931" />
      <stop
         offset=".29999998"
         stop-color="#f7f7f7"
         id="stop933" />
      <stop
         offset="1"
         stop-color="#fff"
         id="stop935" />
    </radialGradient>
    <radialGradient
       inkscape:collect="always"
       xlink:href="#b"
       id="radialGradient840"
       gradientUnits="userSpaceOnUse"
       gradientTransform="matrix(1.4285714,-6e-8,6e-8,1.4285714,-7.285714,-4.365078)"
       cx="17"
       cy="6.5555549"
       r="7" />
    <linearGradient
       gradientTransform="translate(36,-5)"
       id="a-0"
       gradientUnits="userSpaceOnUse"
       x1="14"
       x2="13.79661"
       y1="22"
       y2="2.1355929">
      <stop
         offset="0"
         stop-color="#0040dd"
         id="stop1105" />
      <stop
         offset="1"
         stop-color="#0a84ff"
         id="stop1107" />
    </linearGradient>
    <linearGradient
       inkscape:collect="always"
       xlink:href="#a-0"
       id="linearGradient1489"
       x1="16"
       y1="19"
       x2="16"
       y2="15"
       gradientUnits="userSpaceOnUse" />
  </defs>
  <sodipodi:namedview
     pagecolor="#ffffff"
     bordercolor="#666666"
     borderopacity="1"
     objecttolerance="10"
     gridtolerance="10"
     guidetolerance="10"
     inkscape:pageopacity="0"
     inkscape:pageshadow="2"
     inkscape:window-width="1366"
     inkscape:window-height="685"
     id="namedview36"
     showgrid="true"
     inkscape:zoom="13.906433"
     inkscape:cx="4.447469"
     inkscape:cy="5.8055516"
     inkscape:window-x="0"
     inkscape:window-y="0"
     inkscape:window-maximized="1"
     inkscape:current-layer="svg34"
     inkscape:snap-global="true">
    <inkscape:grid
       type="xygrid"
       id="grid1558" />
  </sodipodi:namedview>
  <path
     style="fill:url(#radialGradient840)"
     d="M 5,3 V 6.7285156 9.40625 20.652344 21 h 0.3515625 c 4.4322918,0 8.8645835,0 13.2968755,0 H 19 V 20.652344 9.40625 6.7285156 L 15,3 H 9 Z"
     id="path938"
     inkscape:connector-curvature="0"
     sodipodi:nodetypes="cccccccccccccc" />
  <path
     style="fill:#98989d;stroke:none;fill-opacity:1"
     d="M 5 2 C 4.446 2 4 2.446 4 3 L 4 21 C 4 21.554 4.446 22 5 22 L 9.1875 22 L 17.638672 22 L 19.003906 22 C 19.140945 21.99947 19.272057 21.971858 19.390625 21.921875 C 19.751627 21.771293 20.003906 21.416832 20.003906 21 L 20 9.0410156 L 20 7.25 L 20 7.0410156 C 20 6.5903357 20.098038 6.6156035 19.394531 5.9746094 L 16.087891 2.7363281 C 15.378366 1.9994706 15.377722 2 14.994141 2 L 14.662109 2 L 14 2 L 5 2 z M 5 3 L 14 3 L 14 7 C 14 7.554 14.446 8 15 8 L 19 8 L 19 9.0410156 L 19 9.40625 L 19.003906 20.648438 L 19 20.652344 L 19 21 L 18.648438 21 L 9.4335938 21 L 8.9414062 21 L 5 21 L 5 3 z "
     id="path4" />
  <path
     d="m15 7h4l-4-4z"
     fill="#fff"
     fill-rule="evenodd"
     id="path6" />
  <rect
     fill="#98989d"
     height="1"
     ry=".5"
     width="5"
     x="7"
     y="5"
     id="rect18" />
  <rect
     fill="#98989d"
     height="1"
     ry=".5"
     width="3"
     x="7"
     y="9"
     id="rect20" />
  <rect
     fill="#ff9f0a"
     height="1"
     ry=".5"
     width="5"
     x="12"
     y="9"
     id="rect22" />
  <rect
     fill="#ff9f0a"
     height="1"
     ry=".5"
     width="7"
     x="7"
     y="12"
     id="rect24" />
  <rect
     fill="#98989d"
     height="1"
     ry=".5"
     width="4"
     x="7"
     y="15"
     id="rect26" />
  <rect
     fill="#ff9f0a"
     height="1"
     ry=".474576"
     width="2"
     x="7"
     y="18"
     id="rect30" />
  <path
     inkscape:connector-curvature="0"
     style="fill:url(#a)"
     d="m 15,3 4,4 h -4 z"
     id="path944" />
  <path
     style="fill:#ffffff;fill-opacity:0.78431374"
     d="m 19,11.480469 0.0039,9.167969 L 19,20.652344 V 11.480469 C 18.672613,11.377068 18.338594,11.296062 18,11.226562 17.347014,11.092531 16.681583,11.000196 16,11 h -0.002 c -3.642815,0.0048 -6.9985403,1.99445 -8.7519532,5.1875 L 7.03125,16.580078 7.1796875,17.001953 c 0.1929162,0.544187 0.537993,1.017718 0.9863281,1.365235 l 0.984375,0.761718 0.5332032,-1.125 C 10.056753,17.215882 10.599187,16.563587 11.207031,15.982422 11.133683,16.321649 11,16.639689 11,17 c 0,1.638539 0.809363,3.086603 2.037109,4 0.582575,0.433414 1.252311,0.755248 1.988282,0.902344 0.03101,0.0315 0.05822,0.06676 0.08984,0.09766 h 2.523438 1.365234 c 0.137039,-5.3e-4 0.268151,-0.02814 0.386719,-0.07813 C 19.751627,21.771293 20.003906,21.416832 20.003906,21 L 20,12 Z"
     id="path1461"
     inkscape:connector-curvature="0"
     sodipodi:nodetypes="ccccccccccccccsscccccccc" />
  <g
     id="g853">
    <circle
       id="circle20"
       r="4"
       cy="17"
       cx="16"
       style="fill:#ffffff" />
    <path
       id="path22"
       d="M 15.999953,12 C 12.719844,12.0043 9.701836,13.792832 8.123,16.667969 8.251945,17.031703 8.480439,17.344556 8.77925,17.576172 10.101039,14.784863 12.911504,13.00371 15.999953,13 c -2.209139,0 -4,1.790861 -4,4 0,2.209139 1.790861,4 4,4 2.209139,0 4,-1.790861 4,-4 0.008,-2.079511 -1.578821,-3.81826 -3.650391,-4 2.961312,0.134551 5.605464,1.895565 6.871094,4.576172 0.301515,-0.233711 0.531909,-0.55005 0.660156,-0.917969 C 22.298738,13.785613 19.279394,12.000945 15.999953,12 Z m 0,2 c 1.656854,0 3,1.343146 3,3 0,1.656854 -1.343146,3 -3,3 -1.656854,0 -3,-1.343146 -3,-3 0,-1.656854 1.343146,-3 3,-3 z"
       style="fill:#98989d;fill-opacity:1"
       inkscape:connector-curvature="0" />
    <path
       id="path24"
       d="m 15.999953,15 c -1.104569,0 -2,0.895431 -2,2 0,1.104569 0.895431,2 2,2 1.104569,0 2,-0.89543 2,-2 0.02896,-0.194894 0.02896,-0.392997 0,-0.587891 -0.174008,0.38903 -0.57545,0.625034 -1,0.587891 -0.552285,0 -1,-0.447715 -1,-1 -0.03682,-0.425027 0.200049,-0.826612 0.589844,-1 -0.195534,-0.02915 -0.39431,-0.02915 -0.589844,0 z"
       style="fill:url(#linearGradient1489);fill-opacity:1"
       inkscape:connector-curvature="0" />
  </g>
  <path
     inkscape:connector-curvature="0"
     style="fill:url(#a-0)"
     d="m 46,-3 c -3.313708,0 -6,2.6862915 -6,6 0,3.313708 2.686292,6 6,6 v 8 h 2 V -1 h 2 v 18 h 2 V -1 l 4,-1 v -1 z"
     id="path1110" />
</svg>
